src/assets/img/icons/duotone-icons/Shopping/Gift.svg

<?xml version="1.0" encoding="UTF-8"?>
<svg width="24px" height="24px" viewBox="0 0 24 24" version="1.1" xmlns="http://www.w3.org/2000/svg" xmlns:xlink="http://www.w3.org/1999/xlink">
    <!-- Generator: Sketch 52.2 (67145) - http://www.bohemiancoding.com/sketch -->
    <title>Stockholm-icons / Shopping / Gift</title>
    <desc>Created with Sketch.</desc>
    <g id="Stockholm-icons-/-Shopping-/-Gift" stroke="none" stroke-width="1" fill="none" fill-rule="evenodd">
        <rect id="bound" x="0" y="0" width="24" height="24"></rect>
        <path d="M4,6 L20,6 C20.5522847,6 21,6.44771525 21,7 L21,8 C21,8.55228475 20.5522847,9 20,9 L4,9 C3.44771525,9 3,8.55228475 3,8 L3,7 C3,6.44771525 3.44771525,6 4,6 Z M5,11 L10,11 C10.5522847,11 11,11.4477153 11,12 L11,19 C11,19.5522847 10.5522847,20 10,20 L5,20 C4.44771525,20 4,19.5522847 4,19 L4,12 C4,11.4477153 4.44771525,11 5,11 Z M14,11 L19,11 C19.5522847,11 20,11.4477153 20,12 L20,19 C20,19.5522847 19.5522847,20 19,20 L14,20 C13.4477153,20 13,19.5522847 13,19 L13,12 C13,11.4477153 13.4477153,11 14,11 Z" id="Combined-Shape" fill="#335EEA"></path>
        <path d="M14.4452998,2.16794971 C14.9048285,1.86159725 15.5256978,1.98577112 15.8320503,2.4452998 C16.1384028,2.90482849 16.0142289,3.52569784 15.5547002,3.83205029 L12,6.20185043 L8.4452998,3.83205029 C7.98577112,3.52569784 7.86159725,2.90482849 8.16794971,2.4452998 C8.47430216,1.98577112 9.09517151,1.86159725 9.5547002,2.16794971 L12,3.79814957 L14.4452998,2.16794971 Z" id="Path-31" fill="#335EEA" opacity="0.3"></path>
    </g>
</svg>

<svg width="24" height="24" viewBox="0 0 24 24" xmlns="http://www.w3.org/2000/svg"><g fill="none" fill-rule="evenodd"><path d="M0 0h24v24H0z"/><path d="M4 6h16a1 1 0 011 1v1a1 1 0 01-1 1H4a1 1 0 01-1-1V7a1 1 0 011-1zm1 5h5a1 1 0 011 1v7a1 1 0 01-1 1H5a1 1 0 01-1-1v-7a1 1 0 011-1zm9 0h5a1 1 0 011 1v7a1 1 0 01-1 1h-5a1 1 0 01-1-1v-7a1 1 0 011-1z" fill="#335EEA"/><path d="M14.445 2.168a1 1 0 011.11 1.664L12 6.202l-3.555-2.37a1 1 0 011.11-1.664L12 3.798l2.445-1.63z" fill="#335EEA" opacity=".3"/></g></svg>
